X: 1
T: Paddy Fahy's
M: 4/4
L: 1/8
R: hornpipe
K: Gmaj
|:B,A,|G,B,DG BAGF|ECCB, CEGc|((3Bcd) gd  ^cdDd|cBAG ((3FED) ((3CB,A,)|
G,B,DG BAGF|ECCB, CEGc|((3Bcd) gd  ^cdDF|((3ABA) GF G2 :|
|:Bc|dggf gdBd|((3cBA) ag fg ((3agf)|gdBd ecAG|Fdd^c dedc|
((3Bcd) BG cBcA|((3Bcd) fa gfdc|((3Bcd) gd ^cdDF|((3ABA) GF G2:|
